packages/bezier-icons/icons/hand-point.svg

<svg width="24" height="24" viewBox="0 0 24 24" fill="none" xmlns="http://www.w3.org/2000/svg">
<path fill-rule="evenodd" clip-rule="evenodd" d="M4.5094 12.213C4.3814 12.213 4.2534 12.262 4.1554 12.359C4.0284 12.487 4.0094 12.636 4.0094 12.713C4.0094 12.79 4.0284 12.939 4.1554 13.067L9.6254 18.535C10.5694 19.48 11.8244 20 13.1604 20H13.9374C15.9934 20 17.8164 18.767 18.5804 16.858C18.8584 16.16 19.0004 15.427 19.0004 14.677V14C19.0004 13.171 18.4784 12.419 17.7024 12.128L10.0004 9.225V3.5C10.0004 3.225 9.7764 3 9.5004 3C9.2244 3 9.0004 3.225 9.0004 3.5V13.841C9.0004 14.286 8.7344 14.685 8.3234 14.856C7.9114 15.028 7.4414 14.936 7.1244 14.621L4.8634 12.359C4.7654 12.262 4.6374 12.213 4.5094 12.213ZM13.9374 22H13.1604C11.2904 22 9.5324 21.272 8.2104 19.949L2.7414 14.481C2.2694 14.008 2.0094 13.381 2.0094 12.713C2.0094 12.044 2.2694 11.416 2.7424 10.944C3.7164 9.972 5.3024 9.971 6.2774 10.945L7.0004 11.668V3.5C7.0004 2.121 8.1214 1 9.5004 1C10.8784 1 12.0004 2.121 12.0004 3.5V7.842L18.4054 10.256C19.9564 10.836 21.0004 12.342 21.0004 14V14.677C21.0004 15.683 20.8104 16.666 20.4364 17.6C19.3674 20.273 16.8164 22 13.9374 22Z" fill="#313234"/>
</svg>

<svg xmlns="http://www.w3.org/2000/svg" width="24" height="24" fill="none" viewBox="0 0 24 24"><path fill="#313234" fill-rule="evenodd" d="M4.51 12.213a.5.5 0 0 0-.5.5c0 .077.018.226.145.354l5.47 5.468A4.96 4.96 0 0 0 13.16 20h.777a4.98 4.98 0 0 0 4.643-3.142c.278-.698.42-1.431.42-2.181V14c0-.829-.522-1.581-1.298-1.872L10 9.225V3.5a.5.5 0 0 0-1 0v10.341c0 .445-.266.844-.677 1.015-.412.172-.882.08-1.199-.235l-2.26-2.262a.5.5 0 0 0-.355-.146M13.936 22h-.777a6.95 6.95 0 0 1-4.95-2.051l-5.469-5.468a2.49 2.49 0 0 1-.732-1.768c0-.669.26-1.297.733-1.769a2.505 2.505 0 0 1 3.535.001l.723.723V3.5C7 2.121 8.121 1 9.5 1 10.878 1 12 2.121 12 3.5v4.342l6.405 2.414A4.02 4.02 0 0 1 21 14v.677c0 1.006-.19 1.989-.564 2.923a6.97 6.97 0 0 1-6.499 4.4" clip-rule="evenodd"/></svg>
